apex/img/our-stats-item-icon4.svg

<svg width="74" height="74" viewBox="0 0 74 74" fill="none" xmlns="http://www.w3.org/2000/svg">
<g clip-path="url(#clip0)">
<path d="M55.1831 18.1831C55.1831 8.14157 47.0502 0 36.9999 0C26.9583 0 18.8168 8.14157 18.8168 18.1831C18.8168 28.2248 26.9583 36.3662 36.9999 36.3662C47.0505 36.3662 55.1831 28.2248 55.1831 18.1831ZM23.3623 18.5765C23.3623 18.5765 22.8379 13.4187 26.5531 9.48487C29.168 12.106 36.9999 18.5765 50.6374 18.5765C50.6374 26.0969 44.5199 32.214 36.9999 32.214C29.4799 32.214 23.3623 26.0965 23.3623 18.5765Z" fill="#E5A132"/>
<path d="M5.79138 50.3536V58.3961V68.7988C5.79138 71.674 8.12291 74.0001 10.9927 74.0001H63.0072C65.8824 74.0001 68.2086 71.6736 68.2086 68.7988V58.3961V50.3536C68.2086 44.6086 63.5557 39.9508 57.8058 39.9508H48.5833C47.9315 39.9508 47.11 40.3907 46.7487 40.9329L37.6551 53.7863C37.2936 54.3289 36.7074 54.3289 36.3459 53.7863L27.2519 40.9324C26.8904 40.3899 26.069 39.9504 25.4172 39.9504H16.1942C10.4542 39.9504 5.79138 44.6085 5.79138 50.3536Z" fill="#E5A132"/>
</g>
<defs>
<clipPath id="clip0">
<rect width="74" height="74" fill="white"/>
</clipPath>
</defs>
</svg>

<svg width="74" height="74" fill="none" xmlns="http://www.w3.org/2000/svg"><g clip-path="url(#clip0)" fill="#E5A132"><path d="M55.183 18.183C55.183 8.142 47.05 0 37 0 26.958 0 18.817 8.142 18.817 18.183c0 10.042 8.141 18.183 18.183 18.183 10.05 0 18.183-8.141 18.183-18.183zm-31.82.393s-.525-5.157 3.19-9.091c2.615 2.621 10.447 9.091 24.084 9.091 0 7.52-6.117 13.638-13.637 13.638-7.52 0-13.638-6.117-13.638-13.637zM5.791 50.354v18.445A5.201 5.201 0 0010.993 74h52.014a5.198 5.198 0 005.203-5.2V50.354c0-5.745-4.653-10.403-10.403-10.403h-9.223c-.651 0-1.473.44-1.834.982l-9.094 12.853c-.361.543-.948.543-1.31 0l-9.093-12.854c-.362-.542-1.183-.982-1.835-.982h-9.223c-5.74 0-10.403 4.658-10.403 10.404z"/></g><defs><clipPath id="clip0"><path fill="#fff" d="M0 0h74v74H0z"/></clipPath></defs></svg>
